!!!COM: Chopin, Frederic
!!!CDT: 1810///-1849///
!!!OTL: Mazurka in F Minor, Op. 7, No. 3
!!!OPS: Op. 7
!!!ONM: No. 3
!!!OMD: Vivace
!!!ODT: 1830///-1832///
!!!PDT: 1832///-1835///
!!!PPP: Leipzig, 1832; Paris and London, 1833; no.1, Warsaw, 1835  
!!!ODE: Mr. Johns of nouvelle-Orleans
!!!OMD: ([half-dot]=54)
**kern	**kern	**dynam
*staff2	*staff1	*staff1/2
*Ipiano	*Ipiano	*Ipiano
*clefF4	*clefG2	*clefG2
*k[b-e-a-d-]	*k[b-e-a-d-]	*k[b-e-a-d-]
*f:	*f:	*f:
*M3/4	*M3/4	*M3/4
*MM182	*MM182	*MM182
=1-	=1-	=1-
!	!LO:TX:b:i:t=sotto voce	!
8FF\L	(>[>2.C</	pp
8EEn\J	.	.
2CC\	.	.
=2	=2	=2
[<2.FF\	4C</]	.
.	4D-</	.
.	4BBn</	.
=3	=3	=3
(<8FF\L]	[>2.C</	.
8EEn\J	.	.
2CC\)	.	.
=4	=4	=4
[<2.FF\	4C</]	.
.	4D-</	.
.	4BBn</)	.
=5	=5	=5
(<8FF\L]	[>2.C</	.
8EEn\J	.	.
2CC\)	.	.
=6	=6	=6
4FF\	2.C</_>	.
(<8FF\L	.	.
8EEn\J	.	.
4CC\)	.	.
=7	=7	=7
!	!LO:TX:b:i:t=smorz.	!
(<8FF\L	2.C</_>	.
8EEn\J	.	.
4CC\)	.	.
4CC\	.	.
!!LO:LB:g=original
=8	=8	=8
*	*^	*
8FF'<\L	2.C</]	2.rdd	.
8EEn'<\	.	.	.
8FF'<\	.	.	.
8EE'<\	.	.	.
8CC'<\	.	.	.
8CC'<\J	.	.	.
*	*v	*v	*
=9	=9	=9
4FF'	8f`L	p
.	16r	.
!	!LO:TX:b:i:t=con anima.	!
.	(16gk	.
4FF: 4C: 4A-:	8a-	.
.	8b-	.
4FF: 4C: 4A-:	8cc	.
.	8a-J)	.
=10	=10	=10
!	!LO:TUP:b	!
4r	(12gL	.
.	12a-	.
.	12gJ)	.
4FF: 4C: 4A-:	4f'	.
4FF: 4C: 4A-:	(4ff^	.
=11	=11	=11
4r	8b-L)	.
.	16r	.
.	(16cck	.
4BB-: 4F: 4d-:	8dd-	<
.	8ee-	.
4BB-: 4F: 4d-:	8ff	.
.	8dd-J)	[
=12	=12	=12
4r	(12dd-L	.
.	12ee-	.
.	12dd-J)	.
4FF: 4C: 4A-:	4cc`	.
4FF: 4C: 4A-:	(4a-^>	.
=13	=13	=13
4r	8f`L)	.
.	16r	.
.	(16gk	<
4FF: 4C: 4A-:	8a-	.
.	8b-	.
4FF: 4C: 4A-:	8cc	.
.	8a-J)	[
=14	=14	=14
!	!LO:TUP:b	!
4r	(12gL	.
.	12a-	.
.	12gJ)	.
4FF: 4C: 4A-:	4f`	.
4FF: 4C: 4A-:	4cc^	.
!!LO:LB:g=original
=15	=15	=15
!	!LO:TX:b:i:t=con forza.	!
.	(8ccq/	.
4r	8cL)	.
.	16rb	.
.	(16dnk	.
4GG 4E- 4G	8e-	.
.	8f	.
4GG 4Dn 4G	8g	.
.	8BnJ)	.
=16	=16	=16
4r	4.c	.
4C: 4G: 4en:	.	.
.	8c	.
4C: 4B-X: 4e:	8d-X^>M<L	.
.	16rg	.
.	(16cJk	.
=17	=17	=17
!	!LO:TX:b:i:t=rubato.	!
4r	8f`L)	.
.	16r	.
.	(16gk	.
4FF: 4C: 4A-:	8a-	<
.	8b-	.
4FF: 4C: 4A-:	8cc	.
.	8a-J)	[
=18	=18	=18
!	!LO:TUP:b	!
4r	(12gL	.
.	12a-	.
.	12gJ)	.
4FF: 4C: 4A-:	4f`	.
4FF: 4C: 4A-:	(4ff^	.
=19	=19	=19
4r	8b-`L)	.
.	16r	.
.	(16cck	<
4BB-: 4F: 4d-:	8dd-	.
.	8ee-	.
4BB-: 4F: 4d-:	8ff	.
.	8dd-J)	[
=20	=20	=20
!	!LO:TUP:a	!
4r	(12dd-L	.
.	12ee-	.
.	12dd-J)	.
4FF: 4C: 4A-:	4cc	.
4FF: 4C: 4A-:	(4a-^>	.
!!LO:LB:g=original
=21	=21	=21
4r	8f`L)	.
.	16r	.
.	(16gk	<
4FF: 4C: 4A-:	8a-	.
.	8b-	.
4FF: 4C: 4A-:	8cc	.
.	8a-J)	[
=22	=22	=22
!	!LO:TUP:b	!
4r	(12gL	.
.	12a-	.
.	12gJ)	.
!	!LO:TX:b:i:t=cresc.	!
4FF: 4C: 4A-:	4f	.
4FF: 4C: 4A-:	4cc^	.
=23	=23	=23
!	!LO:TX:a:i:t=con forza.	!
.	(8ccq/	.
4r	8cL)	<
.	16r	.
.	(16dn'k	[
4GG 4E- 4G	8e-'	.
.	8f'	.
4GG 4Dn 4G	8g	.
.	8BnJ)	.
=24	=24	=24
4r	(>2c^<^^	.
[2C^	.	.
.	4cc)	.
=25||	=25||	=25||
4C]	(8b-L	p
.	8a-J)	.
!	!LO:TX:b:i:t=stretto.	!
4c	4g`	.
4c	(8gL	.
.	8a-J)	.
=26	=26	=26
4F 4A- 4c	(8fL	.
.	8gJ)	.
4F 4A- 4c	4a-`	.
4F 4A- 4c	(8a-/L	.
.	8ccJ)	.
=27	=27	=27
4F 4G 4c	(8b-L	.
.	8a-	.
4F 4B- 4c	8gm<	.
.	8f	.
4F 4B- 4c	8g	.
.	8a-J)	.
!!LO:LB:g=original
=28	=28	=28
4F' 4A-' 4c'	8f`L	.
.	16r	.
.	16gk	<
4F 4A- (4c	8a-	.
.	8b-	.
4F 4A- 4B-)	8cc	.
.	8dd-J	[
.	(8dd-q/	.
=29	=29	=29
!	!LO:TX:b:i:t=dolce	!
*ped	*	*
4EE-	8.ffL)	.
.	16ee-Jk	.
4E- 4G 4d-	4dd-M	.
4E- 4G 4d-	(8ccL	.
*Xped	*	*
.	8b-J	.
=30	=30	=30
*ped	*	*
4AA-'	8a-L	.
.	8b-J	.
4E- 4A- 4c	4cc)	<
4E- 4A- 4c	(8ccL	.
*Xped	*	*
.	8dd-J	[
=31	=31	=31
*ped	*	*
4EE-'	8ffL)	>
.	16rff	.
.	(16ee-Jk	.
4E- 4G 4d-	4dd-T	]
4E- 4G 4d-	8ccL	.
*Xped	*	*
.	8b-J	.
=32	=32	=32
*^	*	*
*ped	*	*	*
4AA-'<	4ryy	8a-L	<
.	.	8b-J	.
*Xped	*	*	*
!	!	!	!LO:HP:b=2
4A- 4c	8E-L	2cc)	[ <
.	8EnJ	.	.
4ryy	4F 4A- 4c	.	[
*v	*v	*	*
=33	=33	=33
4F 4G 4c	(8b-L	p
.	8a-J)	.
!	!LO:TX:b:i:t=stretto	!
4F 4B- 4c	4g	.
4F 4B- 4c	(8gL	.
.	8a-J)	.
=34	=34	=34
4F 4A- 4c	(8fL	.
.	8gJ)	.
4F 4A- 4c	4a-'	.
4F 4A- 4c	(8a-/L	.
.	8ccJ)	.
!!LO:LB:g=original
=35	=35	=35
4F 4G 4c	(8b-L	.
.	8a-	.
4F 4B- 4c	8gm<	.
.	8f	.
4F 4B- 4c	8g	.
.	8a-J	.
=36	=36	=36
4F' 4A-' 4c'	8f`L)	.
.	16r	.
.	16gk	<
4F 4A- (4c	8a-	.
.	8b-	.
4F 4A- 4B-)	8cc	.
.	8dd-J	[
.	(8dd-q/	.
=37	=37	=37
*ped	*	*
!	!LO:TX:b:i:t=dolce.	!
4EE-	(8.ffL)	>
.	16ee-Jk	.
4E- 4G 4d-	4dd-M	]
4E- 4G 4d-	8ccL	.
*Xped	*	*
.	8b-J)	.
=38	=38	=38
*ped	*	*
4AA-	(>)8a-L	.
.	8b-J	.
4E- 4A- 4c	4cc)	<
4E-: 4A-: 4c:	(8ccL	.
*Xped	*	*
.	8dd-J	[
=39	=39	=39
*ped	*	*
4EE-	8ffL)	.
.	16r	.
.	(16ee-Jk	.
4E- 4G 4d-	4dd-M	.
4E- 4G 4d-	8ccL	.
*Xped	*	*
.	8b-J)	.
=40	=40	=40
4AA-	8a-L	<
.	16r	.
.	(>16b-Jk	[
4E- 4c	4cc)	>
!	!	!LO:DY:b=2
4AA-	(8a-L	fz
.	8ccJ)	]
!!LO:LB:g=original
=41||	=41||	=41||
*^	*	*
*ped	*	*	*
4E-: 4A-: 4c:	2.AA-:	8.g-' 8.a-' (8.ee-'L	f
.	.	16g-' 16a-' 16ee-'Jk	.
4E- 4A- 4c	.	4g-' 4a-' 4ff'	>
*Xped	*	*	*
4E- 4A- 4c	.	4g-' 4a-' 4ee-')	]
*v	*v	*	*
=42	=42	=42
4D-: 4A-: 4d-:	8f\` 8a-\` 8dd-\`L	<
.	16r	.
.	16f` 16a-` 16ff`Jk	[
*ped	*	*
!LO:TX:a:i:t=ten.	!LO:TX:a:i:t=ten.	!
2D-:~y 2A-:~y 2f:~y	2a-~y 2dd-~y 2aa-~y	.
*Xped	*	*
=43	=43	=43
*	*^	*
8G- 8B- 8d-L	8g- 8b-L	4ryy	p
16r	16r	.	.
16G- 16B- [16d-Jk	16g- (>16ccJk	.	<
*ped	*	*	*
4D- 4A- 4d-]	4dd-	2f	[
4DD-	4a-)	.	.
*Xped	*	*	*
=44	=44	=44	=44
8G- 8B- 8d-L	8g- 8b-L	4ryy	.
16r	16r	.	.
16G- 16B- [16d-Jk	16g- (>16ccJk	.	<
*ped	*	*	*
4D- 4A- 4d-]	4dd-	2f	[
4DD-	4a-)	.	.
*Xped	*	*	*
*	*v	*v	*
=45	=45	=45
*^	*	*
*ped	*	*	*
!	!	!	!LO:DY:rj
4ryy	4AA-: 4E-: 4c:	8g-\ 8a-\ 8ee-\L	ff
.	.	16r	.
.	.	(16g-' 16a-' 16ee-'Jk	.
4E-: 4A-: 4c:	2AA-:	4g-' 4a-' 4ff'	.
*Xped	*	*	*
4E- 4A- 4c	.	4g-' 4a-' 4ee-')	.
*v	*v	*	*
=46	=46	=46
4D-: 4A-: 4d-:	8f\` 8a-\` 8dd-\`L	.
.	16r	.
.	16f 16a- 16ffJk	.
*ped	*	*
!LO:TX:a:i:t=ten.	!LO:TX:a:i:t=ten.	!
2D-:~y 2A-:~y 2f:~y	2a-~y 2dd-~y 2aa-~y	.
*Xped	*	*
!!LO:LB:g=original
=47	=47	=47
*^	*^	*
8E-L	4EE-	8e- 8gn 8ccL	4ryy	p
16rA	.	16r	.	.
[16E-Jk	.	(>(16d- 16g 16b-Jk	.	.
4E-]	2AA-	4cc^)	2e-)	.
[4E-	.	4c 4a-	.	.
=48	=48	=48	=48	=48
8E-L]	4EE-	8e- 8g 8ccL	4ryy	.
16rA	.	16r	.	.
[16E-Jk	.	(>16d- 16g (16b-Jk	.	.
4E-]	2AA-	4cc)	2e-)	.
4E-	.	4c 4a-	.	.
*	*	*v	*v	*
=49	=49	=49	=49
*ped	*	*	*
!	!	!	!LO:DY:rj
4ryy	4AA-: 4E-: 4c:	8.g- 8.a- (8.ee-L	f
.	.	16g- 16a- 16ee-Jk	.
4E- 4A- 4c	2AA-	4g-' 4a-' 4ff'	>
*Xped	*	*	*
4E- 4A- 4c	.	4g-' 4a-' 4ee-')	]
*v	*v	*	*
=50	=50	=50
4D-: 4A-: 4d-:	8f 8a- 8dd-L	.
.	16r	.
.	16f 16a- 16ffJk	.
*ped	*	*
!LO:TX::a:i:t=ten.	!LO:TX::a:i:t=ten.	!
2D-:^~y 2A-:^~y 2f:^~y	2a-~y 2dd-~y 2aa-~y	.
!! Need to make this pedal-up invisible since it is not in score.
*Xped	*	*
=51	=51	=51
*	*^	*
8G- 8B- 8d-L	8g- 8b-L	4ryy	p
16r	16r	.	.
16G- 16B- [16d-Jk	(16g- (>16ccJk	.	.
*ped	*	*	*
4D- 4A- 4d-]	4dd-)	2f)	<
4DD-	4a-	.	[
*Xped	*	*	*
=52	=52	=52	=52
8G- 8B- 8d-L	8g- 8b-L	4ryy	.
16r	16r	.	.
16G- 16B- [16d-Jk	(16g- (>16ccJk	.	.
*ped	*	*	*
4D- 4A- 4d-]	4dd-)	2f)	<
4DD-	4a-	.	[
*Xped	*	*	*
*	*v	*v	*
!!LO:LB:g=original
=53	=53	=53
*^	*	*
*ped	*	*	*
4ryy	[4AA-: 4E-: 4c:	8.g- 8.a- (8.ee-L	ff
.	.	16g- 16a- 16ee-Jk	.
4E- 4A- 4c	2AA-]	4g-' 4a-' 4ff'	.
*Xped	*	*	*
4E- 4A- 4c	.	4g-' 4a-' 4ee-')	.
*v	*v	*	*
=54	=54	=54
4D- 4A- 4d-	8f\ 8a-\ 8dd-\L	.
.	16r	.
.	16f 16a- 16ffJk	<
!LO:TX:a:i:t=ten.	!LO:TX:a:i:t=ten.	!
2D-:~y 2A-:~y 2f:~y	2a-~y 2dd-~y 2aa-~y	[
=55	=55	=55
*^	*^	*
8E-L	4EE-	8e- 8gn 8ccL	4ryy	p
16rA	.	16r	.	.
[16E-Jk	.	(16d- 16g (>16b-Jk	.	.
4E-]	2AA-	4cc^)	2e-)	.
[4E-	.	4c 4a-	.	.
=56	=56	=56	=56	=56
8E-L]	4EE-	8e- 8g 8ccL	4ryy	.
16rA	.	16r	.	.
[16E-Jk	.	(16d- 16g (>16b-Jk	.	.
4E-]	4AA-	4cc)	2e-)	.
4ryy	(>8A-L	4c 4a-	.	.
.	8G-J)	.	.	.
*v	*v	*	*	*
*	*v	*v	*
=57	=57	=57
!LO:TX:b:i:t=marcato.	!	!
4.F	4dn 4a- (>4b-	p
.	4d 4a- 4b-	.
(>8BB-L	.	.
8C	4f^ 4a-^ 4b-^	.
8DnJ	.	.
=58	=58	=58
8E-L	4e- 4g- 4b-	.
8FJ	.	.
4.G-	4e- 4b-	.
.	4e- 4b-	.
8A-)	.	.
!!LO:LB:g=original
=59	=59	=59
(8G-q/	.	.
()8.FL	4dn 4a- 4b-	.
16EnJk	.	.
4F)	4d 4a- 4b-	.
(>4BB-	4d 4a- 4b-	.
=60	=60	=60
!	!	!LO:HP:b=2
8.E-XL	4e- 4g- 4b-	<
16FJk)	.	.
[2G-	4e- 4b-	.
.	4d-^ 4e-^ 4b--^	[
=61	=61	=61
4.G-]	4c 4e- 4a-)	.
.	4c 4e- (>4a-	.
!	!	!LO:HP:b=2
(>8AA-L	.	<
8BB-	4e- 4g- 4a-	.
8CJ	.	.
=62	=62	=62
8D-L	4d- 4f 4a-	.
8E-J	.	[
4F)	4d- 4a-	.
(8G-L	4d- 4a-	.
8FJ	.	.
=63	=63	=63
(8qF	.	.
8.E-L)	4c 4g- 4a-	.
16DnJk	.	.
4E-)	4c 4g- 4a-)	.
(>4AA-^	4c 4g- 4a-	.
=64	=64	=64
8FL	(>4d- 4f 4a-	.
8E-J	.	.
4D-X)	4d- 4f 4a-	.
(8CL	4e-^ 4f^ 4an^	.
8C-J	.	.
!!LO:LB:g=original
=65	=65	=65
4.BB-)	4e- 4f 4b-)	.
!	!	!LO:HP:b=2
.	(>4dn 4f 4b-	<
(>8BB-L	.	.
8Cn	4f 4a- 4b-	.
8DnJ	.	.
=66	=66	=66
8E-L	4f 4g- 4b-	.
8FJ	.	.
4G-	4e- 4g- 4b-	[
8A-L	4e- 4b-	.
8G-J)	.	.
=67	=67	=67
(8G-q/	.	.
()8.FL	4e- 4a- 4b-	.
16EnJk	.	.
4F`)	4dn 4a- 4b-	.
(>4BB-	4d 4a- 4b-	.
=68	=68	=68
!	!	!LO:HP:b=2
8.E-XL	4e- 4g- 4b-	<
16FJk)	.	.
[2G-	4e- 4b-)	[
.	4d-^ 4e-^ 4b--^	.
=69	=69	=69
4.G-]	4d- 4e- 4a-	.
.	4c 4e- (>4a-	.
!	!	!LO:HP:b=2
(>8AA-L	.	<
8BB-	4e- 4g- 4a-	.
8CJ	.	.
=70	=70	=70
8D-L	4e- 4f 4a-	.
8E-J	.	.
4F)	4d- 4f 4a-	[
(8G-L	4d- 4a-	.
8FJ)	.	.
!!LO:LB:g=original
=71	=71	=71
(8Fq/	.	.
()8.E-L	4d- 4g- 4a-	.
16DnJk)	.	.
4E-`	4c 4g- 4a-	.
(>4AA-	4c 4g- 4a-	.
=72	=72	=72
8FL	4d- 4f 4a-	.
8E-J	.	.
2D-X)	4d- 4f 4a-	.
.	4d- 4f 4a-	.
=73	=73	=73
(8FFL	4d- 4f 4a-	pp
8EE-J	.	.
!	!LO:TX:i:b:t=riten.	!
[2DD-)	4d- 4f 4a-	.
.	4d- 4f 4a-	.
=74	=74	=74
*ped	*	*
2.DD-\]	4A-<^> 4f-^ 4a-^	.
.	4A-< 4f- 4a-	.
*Xped	*	*
.	4A-< 4f- 4a-	.
=75	=75	=75
*ped	*	*
[<2.CC\	4A-<^> 4en 4a-	.
.	4A-< 4e 4a-	.
*Xped	*	*
.	4A-< 4e 4a-	.
=76	=76	=76
*ped	*	*
2.CC\] [<2.C\	4G< 4en 4g	.
.	4G< 4e 4g	.
*Xped	*	*
.	4G< 4e 4g)	.
!!LO:LB:g=original
=77	=77	=77
*^	*	*
2.C_	8FFL	2.G<^ 2.c<^	pp
.	8EEnJ	.	.
.	2CC	.	.
=78	=78	=78	=78
4C]	[2.FF	2.A-<^ 2.f<^>	.
4D-	.	.	.
4BBn	.	.	.
=79	=79	=79	=79
[2.C	8FFL]	2.G< 2.c<	.
.	8EEnJ	.	.
.	2CC	.	.
=80	=80	=80	=80
4C]	[2.FF	2.A-<^ 2.f<^	.
4D-	.	.	.
4BBn	.	.	.
=81	=81	=81	=81
[2.C	(8FFL]	[>2.G<^ [2.c<^	.
.	8EEnJ	.	.
.	2CC	.	.
=82	=82	=82	=82
2.C]	4FF)	2.G<] 2.c<]	.
.	(8FFL	.	.
.	8EEnJ	.	.
.	4CC)	.	.
!!LO:LB:g=original
=83	=83	=83	=83
[2.C	(8FFL	2.G< 2.c<	.
.	8EEnJ	.	.
.	4CC)	.	.
.	(4CC	.	.
=84	=84	=84	=84
2.C]	8FFL	2.r	.
.	8EEn	.	.
.	8FF	.	.
.	8EE	.	.
.	8CC	.	.
.	8CCJ	.	.
*v	*v	*	*
=85	=85	=85
!!LO:TX:B:a:t=Tempo I.
4FF)	8fL	f
.	16r	.
.	(16gk	<
4FF 4C 4A-	8a-	.
.	8b-	.
4FF 4C 4A-	8cc	.
.	8a-J)	[
=86	=86	=86
!	!LO:TUP:b	!
4r	(12gL	.
.	12a-	.
.	12gJ)	.
4FF 4C 4A-	4f'	.
4FF 4C 4A-	(4ff	.
=87	=87	=87
4r	8b-`L)	.
.	16r	.
.	(16cck	.
4BB- 4F 4d-	8dd-	.
.	8ee-	.
4BB- 4F 4d-	8ff	.
.	8dd-J)	.
!!LO:LB:g=original
=88	=88	=88
!	!LO:TUP:a	!
4r	(12dd-L	.
.	12ee-	.
.	12dd-J)	.
4FF 4C 4A-	4cc`	.
4FF 4C 4A-	(4a-^>	.
=89	=89	=89
4r	8fL)	.
.	16r	.
.	(16gk	.
4FF 4C 4A-	8a-	.
.	8b-	.
4FF 4C 4A-	8cc	.
.	8a-J)	.
=90	=90	=90
!	!LO:TUP:b	!
4r	(12gL	.
.	12a-	.
.	12gJ)	.
4FF 4C 4A-	4f	.
4FF 4C 4A-	4cc^	.
=91	=91	=91
!	!LO:TX:i:b:t=con forza.	!
.	(8qcc	.
4r	8cL)	.
.	16r	.
.	(16dnk	.
4GG 4E- 4G	8e-	.
.	8f	.
4GG 4Dn 4G	8g	.
.	8BnJ)	.
=92	=92	=92
4r	4.c	.
4C 4G 4en	.	.
.	8c	.
4C 4B- 4e	8d-XTL	.
.	16rg	.
.	(16cJk	.
!!LO:LB:g=original
=93	=93	=93
!	!LO:TX:a:i:t=rubato.	!
4r	8fL)	.
.	16r	.
.	(16gk	p
4FF 4C 4A-	8a-	.
.	8b-	.
4FF 4C 4A-	8cc	.
.	8a-J)	.
=94	=94	=94
!	!LO:TUP:b	!
4r	(12gL	.
.	12a-	.
.	12gJ)	.
4FF 4C 4A-	4f	.
4FF 4C 4A-	(4ff^	.
=95	=95	=95
.	(8qff	.
4r	8b-L))	.
.	16r	.
.	(16cck	.
4BB- 4F 4d-	8dd-	.
.	8ee-	.
4BB- 4F 4d-	8ff	.
.	8dd-J)	.
=96	=96	=96
!	!LO:TUP:a	!
4r	(12dd-L	.
.	12ee-	.
.	12dd-J)	.
4FF' 4C' 4A-'	4cc	.
4FF' 4C' 4A-'	(4a-^>	.
!!LO:LB:g=original
=97	=97	=97
4r	(>)8f'L	.
.	8g'	.
(4FF' 4C' 4A-'	8a-'	.
.	8b-'	.
4FF' 4C' 4A-')	8cc'	.
.	8a-'J	.
=98	=98	=98
!	!LO:TUP:b	!
4r	(12gL	.
.	12a-	.
.	12gJ)	.
(4FF' 4C' 4A-'	4f')	.
4FF' 4C' 4A-')	(4cc'	.
=99	=99	=99
*ped	*	*
4r	8c`L)	.
.	16rb	.
.	(16enk	<
(4FF' 4C' 4G'	8g	.
.	8b-	[ >
4FF') 4C' 4G'	8.dd-)	.
*Xped	*	*
.	16ccJk	]
=100	=100	=100
!	!LO:TUP:b	!
4r	(12a-L	.
.	12b-	.
.	12a-J)	.
(4FF' 4C' 4A-'	8f`	.
.	8r	.
4FF' 4C' 4A-')	(4ff^	.
!!LO:LB:g=original
=101	=101	=101
*ped	*	*
4r	8c`L)	.
.	16rb	.
.	(16enk	<
(4FF' 4C' 4G'	8g	.
.	8b-)	[
4FF') 4C' 4G'	8.dd-	>
*Xped	*	*
.	16ccJk	]
=102	=102	=102
!	!LO:TUP:b	!
4r	(12a-L	.
.	12b-	.
.	12a-J)	.
(4FF' 4C' 4A-'	8f`	.
.	8r	.
4FF' 4C' 4A-')	(4aa-^	.
=103	=103	=103
*ped	*	*
4r	8c`L)	.
.	16rb	.
.	(16enk	<
(4FF' 4C' 4G'	8g	.
.	8b-	[
4FF') 4C' 4G'	8.dd-)	>
*Xped	*	*
.	16ccJk	]
=104	=104	=104
!	!LO:TUP:b	!
4r	(12a-L	.
.	12b-	.
.	12a-J)	.
*ped	*	*
(4FF 4C 4A-	(>4f	.
*Xped	*	*
4D- 4B-)	4ff	pp
=105	=105	=105
*ped	*	*
*	*8va	*
2FF 2C 2A-	4fff	.
.	4ffff)	.
*Xped	*X8va	*
4r	4r	.
==	==	==
*-	*-	*-
!!!SMS: Mikuli edition, G. Schirmer (1894-1898)
!!!ENC: Craig Stuart Sapp
!!!END: 2005/02/20/
!!!EEV: 2020/03/28/
!!!RDF**kern: > = above
!!!RDF**kern: < = below
